Hatter-kde-dark/actions/24/path-mask-edit.svg

<?xml version="1.0" encoding="UTF-8" standalone="no"?>
<svg
   xmlns:dc="http://purl.org/dc/elements/1.1/"
   xmlns:cc="http://creativecommons.org/ns#"
   xmlns:rdf="http://www.w3.org/1999/02/22-rdf-syntax-ns#"
   xmlns:svg="http://www.w3.org/2000/svg"
   xmlns="http://www.w3.org/2000/svg"
   xmlns:xlink="http://www.w3.org/1999/xlink"
   xmlns:sodipodi="http://sodipodi.sourceforge.net/DTD/sodipodi-0.dtd"
   xmlns:inkscape="http://www.inkscape.org/namespaces/inkscape"
   viewBox="0 0 24 24"
   id="svg2"
   version="1.1"
   inkscape:version="0.91 r13725"
   sodipodi:docname="path-mask-edit.svg"><metadata
   id="metadata20">
  <rdf:RDF>
    <cc:Work
       rdf:about="">
      <dc:format>image/svg+xml</dc:format>
      <dc:type
         rdf:resource="http://purl.org/dc/dcmitype/StillImage" />
    </cc:Work>
  </rdf:RDF>
</metadata>
<sodipodi:namedview
   pagecolor="#ffffff"
   bordercolor="#666666"
   borderopacity="1"
   objecttolerance="10"
   gridtolerance="10"
   guidetolerance="10"
   inkscape:pageopacity="0"
   inkscape:pageshadow="2"
   inkscape:window-width="828"
   inkscape:window-height="480"
   id="namedview18"
   showgrid="false"
   inkscape:zoom="9.8333333"
   inkscape:cx="12"
   inkscape:cy="12"
   inkscape:window-x="0"
   inkscape:window-y="0"
   inkscape:window-maximized="0"
   inkscape:current-layer="svg2" />
a
  <defs
   id="defs3762">
  <style
     type="text/css"
     id="current-color-scheme">
      .ColorScheme-Text {
        color:#dedede;
      }
      </style>
  <linearGradient
     gradientUnits="userSpaceOnUse"
     y2="535.79071"
     x2="433.71429"
     y1="543.79071"
     x1="425.71429"
     id="linearGradient4154"
     xlink:href="#linearGradient4172-7"
     inkscape:collect="always"
     gradientTransform="matrix(1.5,0,0,1.5,-632.57144,-797.68603)" />
  <linearGradient
     inkscape:collect="always"
     id="linearGradient4172-7">
    <stop
       style="stop-color:#1d99f3;stop-opacity:1"
       offset="0"
       id="stop4174-2" />
    <stop
       style="stop-color:#cae7fc;stop-opacity:1"
       offset="1"
       id="stop4176-0" />
  </linearGradient>
</defs>
 <path 
     style="fill:currentColor;fill-opacity:1;stroke:none" 
     d="M 4 5 L 4 19 L 20 19 L 20 5 L 4 5 z M 11.941406 6 A 6 6 0 0 1 18 11.921875 L 18 12 A 6 6 0 0 1 12.019531 18 A 6 6 0 0 1 6 12.039062 A 6 6 0 0 1 11.941406 6 z "
     class="ColorScheme-Text"
     />
<path
   style="opacity:1;fill:url(#linearGradient4154);fill-opacity:1;stroke:none;stroke-width:2;stroke-linecap:square;stroke-miterlimit:4;stroke-dasharray:none;stroke-opacity:1"
   d="m 18,12 a 6,6 0 0 1 -5.98036,5.99997 6,6 0 0 1 -6.01951,-5.9607 6,6 0 0 1 5.94097,-6.03898 6,6 0 0 1 6.05839,5.92118"
   id="path16"
   inkscape:connector-curvature="0" />
</svg>

<?xml version="1.0" encoding="UTF-8"?>
<svg id="svg2" version="1.1" viewBox="0 0 24 24" xmlns="http://www.w3.org/2000/svg" xmlns:cc="http://creativecommons.org/ns#" xmlns:dc="http://purl.org/dc/elements/1.1/" xmlns:rdf="http://www.w3.org/1999/02/22-rdf-syntax-ns#" xmlns:xlink="http://www.w3.org/1999/xlink">
 <metadata id="metadata20">
  <rdf:RDF>
   <cc:Work rdf:about="">
    <dc:format>image/svg+xml</dc:format>
    <dc:type rdf:resource="http://purl.org/dc/dcmitype/StillImage"/>
   </cc:Work>
  </rdf:RDF>
 </metadata>a
 <defs id="defs3762">
  <style id="current-color-scheme" type="text/css">.ColorScheme-Text {
        color:#dedede;
      }</style>
  <linearGradient id="linearGradient4154" x1="425.71" x2="433.71" y1="543.79" y2="535.79" gradientTransform="matrix(1.5 0 0 1.5 -632.57 -797.69)" gradientUnits="userSpaceOnUse">
   <stop id="stop4174-2" stop-color="#1d99f3" offset="0"/>
   <stop id="stop4176-0" stop-color="#cae7fc" offset="1"/>
  </linearGradient>
 </defs>
 <path class="ColorScheme-Text" d="m4 5v14h16v-14h-16zm7.9414 1a6 6 0 0 1 6.0586 5.9219v0.078125a6 6 0 0 1-5.9805 6 6 6 0 0 1-6.0195-5.9609 6 6 0 0 1 5.9414-6.0391z" fill="currentColor"/>
 <path id="path16" d="m18 12a6 6 0 0 1-5.9804 6 6 6 0 0 1-6.0195-5.9607 6 6 0 0 1 5.941-6.039 6 6 0 0 1 6.0584 5.9212" fill="url(#linearGradient4154)"/>
</svg>
